icons/1_Primary/CSGOFloat.svg

<svg width="1024" height="1024" viewBox="0 0 1024 1024" fill="none" xmlns="http://www.w3.org/2000/svg">
<g clip-path="url(#clip0_2_1938)">
<path d="M512 1024C794.77 1024 1024 794.77 1024 512C1024 229.23 794.77 0 512 0C229.23 0 0 229.23 0 512C0 794.77 229.23 1024 512 1024Z" fill="#56595B"/>
<path d="M506.08 419.31C502.137 419.296 498.23 420.063 494.584 421.566C490.939 423.069 487.626 425.279 484.838 428.067C482.049 430.855 479.84 434.168 478.337 437.814C476.834 441.459 476.067 445.366 476.08 449.31V574.73C476.067 578.673 476.834 582.58 478.337 586.226C479.84 589.872 482.049 593.184 484.838 595.972C487.626 598.761 490.939 600.97 494.584 602.473C498.23 603.976 502.137 604.743 506.08 604.73H864.54C868.484 604.743 872.391 603.976 876.037 602.473C879.682 600.97 882.995 598.761 885.783 595.972C888.572 593.184 890.781 589.872 892.284 586.226C893.787 582.58 894.554 578.673 894.54 574.73V449.27C894.554 445.326 893.787 441.419 892.284 437.774C890.781 434.128 888.572 430.815 885.783 428.027C882.995 425.239 879.682 423.029 876.037 421.526C872.391 420.023 868.484 419.256 864.54 419.27L506.08 419.31ZM607.17 439.66C610.21 439.66 612.504 440.256 614.05 441.45C614.75 441.922 615.326 442.556 615.73 443.297C616.133 444.038 616.353 444.866 616.37 445.71C616.385 446.408 616.252 447.102 615.982 447.746C615.711 448.39 615.309 448.971 614.8 449.45C613.683 450.475 612.205 451.014 610.69 450.95C607.361 450.715 604.058 450.19 600.82 449.38C598.979 448.95 597.1 448.699 595.21 448.63C591.917 448.63 588.95 450.673 586.31 454.76C583.67 458.846 581.55 464.33 579.95 471.21L576.21 487.14H596L594.8 492.45H574.8L563 540.15C559.36 554.656 553.527 565.656 545.5 573.15C537.474 580.643 528.807 584.383 519.5 584.37C516.36 584.37 513.994 583.746 512.4 582.5C511.647 582.016 511.027 581.353 510.595 580.568C510.164 579.784 509.935 578.905 509.93 578.01C509.908 577.296 510.051 576.586 510.35 575.937C510.648 575.288 511.094 574.717 511.65 574.27C513.041 573.282 514.729 572.806 516.43 572.92C517.983 572.957 519.532 573.08 521.07 573.29C524.386 573.726 527.726 573.95 531.07 573.96C536.004 573.96 539.594 572.786 541.84 570.44C544.087 568.093 546.33 562.426 548.57 553.44L563.75 492.44H545.85L547.2 487.13H565.07C568.01 474.67 571.374 465.396 575.16 459.31C578.83 453.372 583.933 448.451 590 445C596.08 441.46 601.814 439.69 607.2 439.69L607.17 439.66ZM661.68 439.81C663.483 439.702 665.263 440.261 666.68 441.38C667.259 441.801 667.731 442.353 668.056 442.99C668.381 443.628 668.55 444.334 668.55 445.05C668.575 445.809 668.427 446.563 668.117 447.256C667.807 447.949 667.343 448.563 666.76 449.05C665.246 450.145 663.396 450.676 661.531 450.55C659.393 450.479 657.266 450.228 655.17 449.8C652.971 449.417 650.743 449.217 648.51 449.2C646.864 449.082 645.227 449.53 643.87 450.47C642.424 451.663 641.09 454.18 639.87 458.02C638.65 461.86 636.757 469.436 634.19 480.75L626.83 512C623.144 527.7 621.3 535.9 621.3 536.6C621.3 538.193 621.874 538.99 623.02 538.99C624.167 538.99 625.764 538.343 627.81 537.05C632.289 534.183 636.449 530.848 640.22 527.1L642.76 529.79C638.663 534.344 634.017 538.375 628.93 541.79C623.644 545.376 619.28 547.17 615.84 547.17C615.111 547.184 614.387 547.03 613.726 546.72C613.066 546.409 612.485 545.951 612.03 545.38C610.967 544.022 610.436 542.322 610.54 540.6C610.54 536.6 612.084 528.326 615.17 515.78L623.24 483C626.18 471.133 628.647 463.183 630.64 459.15C633.505 453.366 637.921 448.491 643.395 445.071C648.869 441.651 655.186 439.819 661.641 439.78L661.68 439.81ZM161.91 461.45C152.404 461.45 144.6 464.59 138.5 470.87C132.4 477.15 129.4 485.226 129.5 495.1V528.62C129.5 538.62 132.5 546.743 138.5 552.99C144.5 559.236 152.304 562.376 161.91 562.41C183.604 562.41 194.45 549.716 194.45 524.33H175.45V525.58C175.45 532.413 174.344 537.213 172.13 539.98C169.917 542.746 166.5 544.13 161.88 544.13C158.37 544.232 154.952 542.995 152.32 540.67C149.734 538.27 148.44 534.44 148.44 529.18V494.55C148.44 489.376 149.734 485.636 152.32 483.33C154.914 480.926 158.346 479.633 161.88 479.73C170.927 479.73 175.45 485.5 175.45 497.04V498.42H194.45C194.45 486.88 191.68 477.833 186.14 471.28C180.6 464.726 172.52 461.45 161.9 461.45H161.91ZM242.22 461.45C232.62 461.45 224.91 464.036 219.09 469.21C213.27 474.383 210.41 481.353 210.51 490.12C210.367 494.997 211.513 499.826 213.83 504.12C215.859 507.628 218.773 510.541 222.28 512.57C225.829 514.478 229.482 516.187 233.22 517.69C237.22 519.17 240.867 520.416 244.16 521.43C247.293 522.203 250.192 523.723 252.61 525.86C253.703 526.713 254.583 527.806 255.183 529.055C255.783 530.304 256.087 531.674 256.07 533.06C256.07 536.94 254.777 539.893 252.19 541.92C249.604 543.946 246.27 544.916 242.19 544.83C237.85 544.83 234.387 543.536 231.8 540.95C229.214 538.363 227.967 534.3 228.06 528.76H209.26C209.26 539.1 212.26 547.316 218.26 553.41C224.26 559.503 232.26 562.55 242.26 562.55C252.26 562.55 260.2 559.92 266.08 554.66C271.96 549.4 274.96 542.153 275.08 532.92C275.08 526.46 273.51 521.196 270.37 517.13C267.453 513.147 263.465 510.075 258.87 508.27C254.47 506.53 249.994 505.006 245.44 503.7C241.383 502.597 237.523 500.866 234 498.57C232.549 497.692 231.351 496.451 230.525 494.969C229.699 493.488 229.273 491.816 229.29 490.12C229.29 482.64 233.49 478.9 241.89 478.9C250.664 478.9 255.05 483.976 255.05 494.13H273.8C273.8 484.13 270.894 476.19 265.08 470.31C259.267 464.43 251.65 461.476 242.23 461.45H242.22ZM324.05 461.45C314.544 461.45 306.787 464.59 300.78 470.87C294.774 477.15 291.774 485.273 291.78 495.24V528.62C291.78 538.62 294.78 546.743 300.78 552.99C306.78 559.236 314.537 562.33 324.05 562.27C333.65 562.27 341.454 559.176 347.46 552.99C353.467 546.803 356.514 538.68 356.6 528.62V510.89H324.2V527.65H337.63V529.31C337.63 534.39 336.337 538.13 333.75 540.53C331.077 542.871 327.613 544.108 324.06 543.99C319.907 543.99 316.63 542.79 314.23 540.39C311.83 537.99 310.677 534.296 310.77 529.31V497.18C310.77 490.9 311.924 486.423 314.23 483.75C316.537 481.076 319.907 479.743 324.34 479.75C333.207 479.75 337.637 484.643 337.63 494.43H356.63C356.444 484.736 353.304 476.843 347.21 470.75C341.117 464.656 333.407 461.563 324.08 461.47L324.05 461.45ZM407.27 461.45C397.764 461.45 389.96 464.636 383.86 471.01C377.76 477.383 374.76 485.506 374.86 495.38V528.62C374.86 538.5 377.86 546.58 383.86 552.86C389.86 559.14 397.664 562.28 407.27 562.28C416.87 562.28 424.674 559.14 430.68 552.86C436.687 546.58 439.734 538.503 439.82 528.63V495.38C439.82 485.38 436.774 477.256 430.68 471.01C424.587 464.763 416.784 461.576 407.27 461.45ZM850.63 466.2L845.25 487.14H860.73L859.531 492.45H844.05L837.47 517.45C835.424 524.976 834.401 530.21 834.401 533.15C834.305 534.191 834.597 535.23 835.22 536.07C835.537 536.374 835.912 536.61 836.323 536.765C836.734 536.92 837.172 536.989 837.61 536.97C839.157 536.97 841.524 536.046 844.711 534.2C848.921 531.751 852.934 528.976 856.711 525.9L859.55 529.34C848.63 537.566 841.327 542.603 837.641 544.45C833.954 546.296 830.987 547.22 828.74 547.22C827.9 547.253 827.064 547.089 826.299 546.742C825.533 546.395 824.859 545.873 824.331 545.22C823.284 543.886 822.76 541.693 822.76 538.64C822.76 535.053 823.707 529.57 825.6 522.19L833.3 492.43H821.17L822.521 487.12H834.521L838.711 470.75L850.6 466.19L850.63 466.2ZM407.27 479.73C409.044 479.658 410.813 479.939 412.477 480.557C414.14 481.175 415.664 482.117 416.96 483.33C419.547 485.73 420.84 489.513 420.84 494.68V529.3C420.84 534.473 419.507 538.213 416.84 540.52C414.135 542.781 410.715 544.008 407.19 543.982C403.664 543.956 400.262 542.68 397.59 540.38C395.097 537.98 393.85 534.24 393.85 529.16V494.55C393.85 489.376 395.144 485.636 397.73 483.33C400.324 480.926 403.756 479.633 407.29 479.73H407.27ZM794 480L788.391 498.92C786.151 506.446 784.034 515.113 782.04 524.92C781.23 528.313 780.679 531.763 780.391 535.24C780.391 536.786 781.014 537.56 782.26 537.56C783.61 537.331 784.889 536.797 786 536C789.221 534.055 792.207 531.747 794.901 529.12L797.29 532.04C791.61 537.226 787.97 540.366 786.37 541.46C783.548 543.459 780.484 545.092 777.25 546.32C775.481 546.977 773.608 547.315 771.72 547.32C770.668 547.4 769.625 547.078 768.8 546.42C768.456 546.08 768.188 545.67 768.016 545.218C767.843 544.766 767.77 544.283 767.8 543.8C767.855 542.753 768.057 541.72 768.401 540.73L771.401 530.56C767.032 535.762 761.856 540.229 756.07 543.79C752.43 546.083 749.097 547.23 746.07 547.23C744.794 547.299 743.521 547.055 742.36 546.52C741.199 545.985 740.187 545.175 739.41 544.16C737.317 541.42 736.271 537.83 736.271 533.39C736.271 528.103 737.667 522.22 740.461 515.74C743.284 509.287 747.123 503.329 751.831 498.09C756.007 493.246 761.106 489.282 766.831 486.43C770.87 484.536 776.054 483.59 782.38 483.59C784.005 483.592 785.628 483.692 787.24 483.89L789 481L793.94 480H794ZM698.44 482.32C700.784 482.287 703.104 482.797 705.218 483.808C707.332 484.819 709.185 486.305 710.63 488.15C713.87 492.036 715.49 497.443 715.49 504.37C715.49 515.436 711.604 525.38 703.831 534.2C696.057 543.02 687.834 547.406 679.16 547.36C673.827 547.36 669.517 545.616 666.23 542.13C662.944 538.643 661.324 533.883 661.37 527.85C661.348 517.492 664.488 507.374 670.37 498.85C677.897 487.836 687.267 482.33 698.48 482.33L698.44 482.32ZM692 487.89C687.76 487.89 683.647 490.93 679.66 497.01C675.674 503.09 673.704 511.423 673.75 522.01C673.75 528.49 674.97 533.6 677.41 537.34C678.137 538.598 679.184 539.642 680.446 540.364C681.707 541.086 683.137 541.461 684.591 541.45C688.777 541.45 692.591 538.86 696.031 533.68C700.417 526.953 702.61 518.62 702.61 508.68C702.61 501.2 701.59 495.866 699.55 492.68C697.51 489.493 694.994 487.896 692 487.89ZM772.901 491.63C768.681 491.544 764.552 492.859 761.16 495.37C757.827 497.81 754.711 502.246 751.81 508.68C749.052 514.686 747.6 521.21 747.55 527.82C747.55 531.206 748.124 533.65 749.271 535.15C749.781 535.859 750.457 536.434 751.239 536.824C752.021 537.214 752.887 537.408 753.76 537.39C757.201 537.39 760.891 535.546 764.831 531.86C768.771 528.173 771.66 522.813 773.5 515.78L779.711 492.45C777.473 491.955 775.192 491.681 772.901 491.63Z" fill="white"/>
</g>
<defs>
<clipPath id="clip0_2_1938">
<rect width="1024" height="1024" fill="white"/>
</clipPath>
</defs>
</svg>

<svg xmlns="http://www.w3.org/2000/svg" viewBox="0 0 1024 1024">
   <circle cx="512" cy="512" r="512" style="fill:#4a4a4a"/>
   <path d="M506.08 419.31a29.9 29.9 0 0 0-30 30v125.42a29.9 29.9 0 0 0 30 30h358.46a29.9 29.9 0 0 0 30-30V449.27a29.9 29.9 0 0 0-30-30Zm101.09 20.35q4.56 0 6.88 1.79a5.27 5.27 0 0 1 2.32 4.26 5 5 0 0 1-1.57 3.74 5.72 5.72 0 0 1-4.11 1.5 57.26 57.26 0 0 1-9.87-1.57 29.42 29.42 0 0 0-5.61-.75q-4.94 0-8.9 6.13t-6.36 16.45l-3.74 15.93H596l-1.2 5.31h-20l-11.8 47.7q-5.46 21.76-17.5 33t-26 11.22q-4.71 0-7.1-1.87a5.37 5.37 0 0 1-2.47-4.49 4.61 4.61 0 0 1 1.72-3.74 7.4 7.4 0 0 1 4.78-1.35 41.9 41.9 0 0 1 4.64.37 78.49 78.49 0 0 0 10 .67q7.4 0 10.77-3.52t6.73-17l15.18-61h-17.9l1.35-5.31h17.87q4.41-18.69 10.09-27.82A41.66 41.66 0 0 1 590 445q9.12-5.31 17.2-5.31Zm54.51.15a7.36 7.36 0 0 1 5 1.57 4.54 4.54 0 0 1 1.87 3.67 5 5 0 0 1-1.79 4 8 8 0 0 1-5.23 1.5 38.11 38.11 0 0 1-6.36-.75 40.7 40.7 0 0 0-6.66-.6 7.24 7.24 0 0 0-4.64 1.27q-2.17 1.79-4 7.55t-5.68 22.73L626.83 512q-5.53 23.55-5.53 24.6 0 2.39 1.72 2.39t4.79-1.94a74.85 74.85 0 0 0 12.41-9.95l2.54 2.69a74.32 74.32 0 0 1-13.83 12q-7.93 5.38-13.09 5.38a4.75 4.75 0 0 1-3.81-1.79 7.06 7.06 0 0 1-1.49-4.78q0-6 4.63-24.82l8.07-32.78q4.41-17.8 7.4-23.85a34.83 34.83 0 0 1 31-19.37Zm-499.77 21.64q-14.26 0-23.41 9.42t-9 24.23v33.52q0 15 9 24.37t23.41 9.42q32.54 0 32.54-38.08h-19v1.25q0 10.25-3.32 14.4t-10.25 4.15a13.83 13.83 0 0 1-9.56-3.46q-3.88-3.6-3.88-11.49v-34.63q0-7.76 3.88-11.22a13.52 13.52 0 0 1 9.56-3.6q13.57 0 13.57 17.31v1.38h19q0-17.31-8.31-27.14t-24.24-9.83Zm80.31 0q-14.4 0-23.13 7.76t-8.58 20.91a27.76 27.76 0 0 0 3.32 14 23.14 23.14 0 0 0 8.45 8.45 108.64 108.64 0 0 0 10.94 5.12q6 2.22 10.94 3.74a20 20 0 0 1 8.45 4.43 9 9 0 0 1 3.46 7.2q0 5.82-3.88 8.86t-10 2.91q-6.51 0-10.39-3.88t-3.74-12.19h-18.8q0 15.51 9 24.65t24 9.14q15 0 23.82-7.89t9-21.74q0-9.69-4.71-15.79a26.07 26.07 0 0 0-11.5-8.86q-6.6-2.61-13.43-4.57a40.31 40.31 0 0 1-11.44-5.13 9.76 9.76 0 0 1-4.71-8.45q0-11.22 12.6-11.22 13.16 0 13.16 15.23h18.75q0-15-8.72-23.82t-22.85-8.86Zm81.83 0q-14.26 0-23.27 9.42t-9 24.37v33.38q0 15 9 24.37t23.27 9.28q14.4 0 23.41-9.28t9.14-24.37v-17.73h-32.4v16.76h13.43v1.66q0 7.62-3.88 11.22a14 14 0 0 1-9.69 3.46q-6.23 0-9.83-3.6t-3.46-11.08v-32.13q0-9.42 3.46-13.43t10.11-4q13.3 0 13.29 14.68h19q-.28-14.54-9.42-23.68t-23.13-9.28Zm83.22 0q-14.26 0-23.41 9.56t-9 24.37v33.24q0 14.82 9 24.24t23.41 9.42q14.4 0 23.41-9.42t9.14-24.23v-33.25q0-15-9.14-24.37t-23.41-9.56Zm443.36 4.75-5.38 20.94h15.48l-1.2 5.31h-15.48l-6.58 25q-3.07 11.29-3.07 15.7a4.25 4.25 0 0 0 .82 2.92 3.24 3.24 0 0 0 2.39.9q2.32 0 7.1-2.77a93.12 93.12 0 0 0 12-8.3l2.84 3.44q-16.38 12.34-21.91 15.11t-8.9 2.77a5.4 5.4 0 0 1-4.41-2q-1.57-2-1.57-6.58 0-5.38 2.84-16.45l7.7-29.76h-12.13l1.35-5.31h12l4.19-16.37 11.89-4.56Zm-443.36 13.53a13.39 13.39 0 0 1 9.69 3.6q3.88 3.6 3.88 11.35v34.62q0 7.76-4 11.22a14.88 14.88 0 0 1-19.25-.14q-3.74-3.6-3.74-11.22v-34.61q0-7.76 3.88-11.22a13.52 13.52 0 0 1 9.56-3.6ZM794 480l-5.61 18.92q-3.36 11.29-6.35 26a69 69 0 0 0-1.65 10.32q0 2.32 1.87 2.32A9 9 0 0 0 786 536a49.07 49.07 0 0 0 8.9-6.88l2.39 2.92q-8.52 7.78-10.92 9.42a40.89 40.89 0 0 1-9.12 4.86 16 16 0 0 1-5.53 1 4.17 4.17 0 0 1-2.92-.9 3.38 3.38 0 0 1-1-2.62 11.17 11.17 0 0 1 .6-3.07l3-10.17a63.44 63.44 0 0 1-15.33 13.23q-5.46 3.44-10 3.44a7.85 7.85 0 0 1-6.66-3.07q-3.14-4.11-3.14-10.77 0-7.93 4.19-17.65a66 66 0 0 1 11.37-17.65 48.16 48.16 0 0 1 15-11.66q6.06-2.84 15.55-2.84a40.33 40.33 0 0 1 4.86.3L789 481l4.94-1Zm-95.56 2.32a15.22 15.22 0 0 1 12.19 5.83q4.86 5.83 4.86 16.22 0 16.6-11.66 29.83t-24.67 13.16q-8 0-12.93-5.23t-4.86-14.28a50.86 50.86 0 0 1 9-29q11.29-16.52 28.11-16.52Zm-6.44 5.57q-6.36 0-12.34 9.12t-5.91 25q0 9.72 3.66 15.33a8.22 8.22 0 0 0 7.18 4.11q6.28 0 11.44-7.77 6.58-10.09 6.58-25 0-11.22-3.06-16t-7.55-4.79Zm80.9 3.74a19.08 19.08 0 0 0-11.74 3.74q-5 3.66-9.35 13.31a46.71 46.71 0 0 0-4.26 19.14q0 5.08 1.72 7.33a5.39 5.39 0 0 0 4.49 2.24q5.16 0 11.07-5.53t8.67-16.08l6.21-23.33a35.21 35.21 0 0 0-6.81-.82Z" style="fill:#fff"/>
</svg>
